!!!!SEGMENT: T553_Mai-w19p1m1-9.krn
!!!COM: Martin, Frank
!!!OTL: I: Andante
!!!AGN: Instrumental
!!!AGN-sub: Chamber
!!!CNT: Swiss
!!!ODT: 1938
!!!OPR: Sonata da chiesa (Church Sonata), for Viola d'amore and Organ
!!!filename: T553_Mai-w19p1m1-9.krn
**kern	**kern	**dynam	**kern	**dynam
*grp:A	*grp:A	*	*grp:B	*
*part3	*part2	*	*part1	*
*staff3	*staff2	*	*staff1	*
*ICklav	*ICklav	*	*ICww	*
*Iorgan	*Iorgan	*	*Iflt	*
*I"Pedals	*I"Organ Manual	*	*I"Flute	*
*I'org-ped	*I'org-man	*	*I'fl	*
*clefF4	*clefG2	*	*clefG2	*
*k[]	*k[]	*	*k[]	*
*C:	*C:	*	*C:	*
!!LO:TX:tempo:a:t=Andante\n[quarter]=69
*M4/4	*M4/4	*	*M4/4	*
*met(c)	*met(c)	*	*met(c)	*
*	*^	*	*	*
!!LO:TX:t=Andante [quarter]=69
!	!LO:TX:a:t=8' or 16' très fins	!	!	!	!
4r	(4cc	[4a	p	4r	.
=1	=1	=1	=1	=1	=1
!LO:TX:a:t=8'.16'.	!	!	!	!LO:TX:a:i:t=dolce teneramente	!
1r	4b)	4a]	.	[1d	.
.	[4b	(4a	.	.	.
.	4b]	4g#X)	.	.	.
.	(4b	(4g#	.	.	.
=2	=2	=2	=2	=2	=2
2.B-X	4ff)	4gn)	.	2d]	.
.	(4ff	(4g	.	.	.
.	4ee)	4dd-X)	.	(>4.g	.
4r	(4ee	[4dd-	.	.	.
.	.	.	.	8a)	.
=3	=3	=3	=3	=3	=3
2.G	4ee-X)	4dd-]	.	(8b-X	.
.	.	.	.	4a)	.
.	[4ee-	(4dd-X	.	.	.
.	.	.	.	([8b-N>	.
.	4ee-]	4cc)	.	4b-]	.
4r	(4ee-	(4cc	.	4a)	.
=4	=4	=4	=4	=4	=4
2.F	4aa)	4ddn)	.	(8bn	.
.	.	.	.	[4.dd	.
.	(4aa	[4bn	.	.	.
.	4gg#X)	4b]	.	4.dd])	.
4r	(4gg#	(4b	.	.	.
.	.	.	.	8gg~	.
=5	=5	=5	=5	=5	=5
[1D	4ggn)	4ff)	.	([1bb-X	<
.	[4gg	(4ff	.	.	.
.	4gg]	4ee)	.	.	.
.	(4gg	(4ee	.	.	.
!!linebreak:original
=6	=6	=6	=6	=6	=6
2.D]	4ccc#X)	4ee-X)	.	4.bb-]	[
.	(4ccc#	(4ee-	.	.	.
.	.	.	.	8aa)	.
.	4cccn)	4aa)	.	(8ff#X	.
.	.	.	.	4gg#X	.
4r	(4ccc	[4aa	.	.	.
.	.	.	.	[8ff#	.
=7	=7	=7	=7	=7	=7
2.GG	4bbn)	4aa]	.	8ff#])	.
.	.	.	.	(4ee-X	.
.	[4bb	(4aa	.	.	.
.	.	.	.	[8ffn)	.
.	4bb]	4aa-X)	.	8ff]	.
.	.	.	.	(4gg-X	.
4r	[4bb-X	(4aa-	.	.	.
.	.	.	.	[8ff	.
=8	=8	=8	=8	=8	=8
2.GG	4bb-]	4cc)	.	8ffL])	.
.	.	.	.	(8een	.
.	[4aa	(4ff#X	.	8ff	.
.	.	.	.	[8ddJ	.
.	4aa]	4bn)	.	8ddL])	.
.	.	.	.	[8cc#X~J	.
4r	[4gg#X	(4ffn	.	8.cc#L]	.
.	.	.	.	[16cc#~Jk	.
=9	=9	=9	=9	=9	=9
2.GG	4gg#]	4b-X)	.	8cc#L]	.
.	.	.	.	(8cc#X~	.
.	[4ff#X	(4b-	.	8dd~	.
.	.	.	.	8ee~J)	.
.	4ff#]	4a)	.	4ffn~	.
4r	(4ff#i	[4a	.	8.ccn~L	.
.	.	.	.	16cc'Jk	.
*	*v	*v	*	*	*
=	=	=	=	=
*-	*-	*-	*-	*-
!!!system-decoration: s1[(s2,s3)]
!!!RDF**kern: N = hairpin accent
!!!RDF**kern: > = above
!!!RDF**kern: < = below
!!!RDF**kern: i = marked note, color="hotpink", text="extra("
!!!EED: Gabriella Vici
!!!EEV: 2021/11/18
!!!EED2: Jason Lee
!!!EEV2: 2022/03/31
!!!EED3: Bryan Bell
!!!Suter_Work_ID: Mai-19
!!!Suter_Example_Number: 553
!!!Suter_Example_ID: Mai-19/1/1-9
!!!Premiere_Location: Basel,Switzerland
!!!Other_Tsigs: none
!!!Full_Unit_Duration: 4:38
!!!First_Publication_Year: 1952
!!!First_Public_Performance_Year: 1939
!!!Example_Total_Measures: 9
!!!Example_Timestamp_Duration: 34
!!!Example_Start_Tsig_Type: simple quadruple
!!!Example_Start_Tsig_Mean_Beat_Rate: 69
!!!Example_Start_Tsig_Beat_Rate: 69
!!!Example_Start_Tsig_Beat: quarter
!!!Example_Start_Tsig: 4/4
!!!Example_Start_Timestamp: 0:00
!!!Example_Start_Tempo_Expression: Andante
!!!Example_Start_Notated_Beat_Rate: 69
!!!Example_Start_Notated_Beat: quarter
!!!Example_Start_Measure: 1
!!!Example_Metadata_Validated: Y
!!!Example_End_Timestamp: 0:34
!!!Example_End_Measure: 9
!!!Example_Dataset: T
!!!Editorial_Comments:
!!!Death_Place: Naarden,Netherlands
!!!Death_Date: 21-Nov-1974
!!!Changing_Tsig: no
!!!Birth_Place: Geneva,Switzerland
!!!Birth_Date: 15-Sep-1890
!!!Audio_Example_Quarter_Note_Tempo:
!!!Audio_Example_Duration:
!!!EEV3: 2023/06/02
